X:11
T:The Willow Tree
C:Robin Beech
R:bouree
N:For Morgane Erenati
M:2/4
L:1/8
K:Bphr
B,>E FG  | FG AB | B,>E FG | B2 B2 | 
A>B cA | BA GB |1 AG FE | _E2 B,2 :|2 AG FB, | E2E2 |:
c2 B>A | FG GF | B>A FG | B,_E =EF | 
GA _B=B | cB _B=B |1 c>B _B=B | e2e2 :|2 A>G FG [e2E2] [e2E2] |]
